!!!COM: Honegger, Arthur
!!!OTL: La Danse des morts (The Dance of the Dead), Oratorio for Soli, Choir and Orchestra
!!!OMV: II: Danse des morts (Dance of the Dead)
!!!example: 597
!!!work: Hon-32
**kern	**kern	**dynam	**kern	**kern	**dynam	**kern	**dynam	**kern	**dynam	**kern	**dynam
*part7	*part7	*part7	*part6	*part5	*part5	*part4	*part4	*part3	*part3	*part2	*part2
*staff8	*staff7	*	*staff6	*staff5	*	*staff4	*	*staff3	*	*staff2	*
*I"Piano	*	*	*I"BASS	*I"TENOR	*	*I"ALTO	*	*I"SOPRANO	*	*I"Baritone Solo	*
*I'Pno.	*	*	*I'B.	*I'T.	*	*I'A.	*	*I'S.	*	*I'Bar. Solo	*
*clefF4	*clefF4	*	*clefF4	*clefGv2	*	*clefG2	*	*clefG2	*	*clefF4	*
*k[]	*k[]	*	*k[]	*k[]	*	*k[]	*	*k[]	*	*k[]	*
*C:	*C:	*	*C:	*C:	*	*C:	*	*C:	*	*C:	*
*M6/8	*M6/8	*	*M6/8	*M6/8	*	*M6/8	*	*M6/8	*	*M6/8	*
*MM121	*MM121	*	*MM121	*MM121	*	*MM121	*	*MM121	*	*MM121	*
=160	=160	=160	=160	=160	=160	=160	=160	=160	=160	=160	=160
.	(32qf/LLL	fp	.	.	.	.	.	.	.	.	.
.	32qf#X/	.	.	.	.	.	.	.	.	.	.
.	32qg/JJJ	.	.	.	.	.	.	.	.	.	.
*	*^	*	*	*	*	*	*	*	*	*	*
[8AAAL [8AA 8c	8a')	8AAn 8En 8An	.	4Cn	4cn	.	4ccn	.	8ffn	.	16FnLL	p
.	.	.	.	.	.	.	.	.	.	.	16FJ	.
8AAAJ] 8AA]	8r	8r	.	.	.	.	.	.	4r	.	8FJ	.
8r	8f#'	8AA 8C	.	8r	8r	.	8r	.	.	.	8r	.
4FF	8f-X'	4GGn 4Dn	.	8r	8AL	p	8aL	p	4r	.	[4F	.
.	8r	.	.	8r	8BnJ	.	8bnJ	.	.	.	.	.
8r	8e'	8r	.	8c	8r	.	8r	.	8cc	p	8F]	.
=161	=161	=161	=161	=161	=161	=161	=161	=161	=161	=161	=161	=161
4F	8c-X	4EE 4Dn	.	4F	4r	.	4r	.	4f	.	8FL	.
.	8r	.	.	.	.	.	.	.	.	.	8F	.
8r	8dn	8C 8F	.	8r	8A	.	8a	.	8r	.	8FJ	.
4C	4A	8.BB#XL 8.D	.	8r	8B	.	8b	.	4.r	.	8FL	.
.	.	.	.	8r	8r	.	8r	.	.	.	8FJ	.
.	.	16BB#k 16D	.	.	.	.	.	.	.	.	.	.
8r	8r	8BBnJ 8D-X	.	8c	8c	.	8r	.	.	.	8r	.
*	*v	*v	*	*	*	*	*	*	*	*	*	*
=162	=162	=162	=162	=162	=162	=162	=162	=162	=162	=162	=162
4.AA	(4.EE [4.AA 4.E	.	4F	4F	.	16%3fL	.	([4.ff	.	8r	.
.	.	.	.	.	.	.	.	.	.	8FL	.
.	.	.	.	.	.	16%3fJ	.	.	.	.	.
.	.	.	8r	8r	.	.	.	.	.	8FJ	.
4.FF	4.EE#X 4.AA] 4.E#X	.	8r	4.r	.	4.f	.	4ff]	.	4F	.
.	.	.	8r	.	.	.	.	.	.	.	.
.	.	.	8A	.	.	.	.	8ff)	.	8F	.
=163	=163	=163	=163	=163	=163	=163	=163	=163	=163	=163	=163
4.BB-X	4.FF [4.BB 4.F	.	4D	4r	.	16%3gL	.	[4.ff	.	4F	.
.	.	.	.	.	.	16%3gJ	.	.	.	.	.
.	.	.	8r	8r	.	.	.	.	.	16FLL	.
.	.	.	.	.	.	.	.	.	.	16FJJ	.
4.G	4.EE#X) 4.BB] 4.E#X	.	4.r	4r	.	[16%3gL	.	4ff]	.	16FLL	.
.	.	.	.	.	.	.	.	.	.	16FJJ	.
.	.	.	.	.	.	.	.	.	.	4F	.
.	.	.	.	.	.	16%3gJ]	.	.	.	.	.
.	.	.	.	8B-X	.	.	.	8gg	.	.	.
=164	=164	=164	=164	=164	=164	=164	=164	=164	=164	=164	=164
!!pagebreak:original
4.D	(4.FF [4.C 4.F	.	2.r	4d	.	16%3a'L	.	(2.ff	.	4r	.
.	.	.	.	.	.	16%3b-X'J	.	.	.	.	.
.	.	.	.	8r	.	.	.	.	.	8F	.
4.AA	4.FF#X 4.C] 4.F#X	.	.	8r	.	16%3cc'L	.	.	.	16F	.
.	.	.	.	.	.	.	.	.	.	4F	.
.	.	.	.	8r	.	.	.	.	.	.	.
.	.	.	.	.	.	16%3f'J	.	.	.	.	.
.	.	.	.	8c	.	.	.	.	.	.	.
.	.	.	.	.	.	.	.	.	.	16F	.
=165	=165	=165	=165	=165	=165	=165	=165	=165	=165	=165	=165
4.GG	4.GG 4.E 4.G	.	2.r	4B-X	.	16%3en'L	.	4.cc)	.	4F	.
.	.	.	.	.	.	16%3f'J	.	.	.	.	.
.	.	.	.	8r	.	.	.	.	.	16FLL	.
.	.	.	.	.	.	.	.	.	.	16FJJ	.
4.BB-X	8EEL [8BB 8E	.	.	8r	.	16%3g'L	.	4.r	.	4F	.
.	8FF 8BB_ 8F	.	.	8r	.	.	.	.	.	.	.
.	.	.	.	.	.	16%3c'J	.	.	.	.	.
.	8GGJ) 8BB] 8G	.	.	8c	.	.	.	.	.	8F	.
=166	=166	=166	=166	=166	=166	=166	=166	=166	=166	=166	=166
4.AA	(4.EE [4.AA 4.E	.	16%3F'L	4F	.	16%3fL	.	([4.ff	.	4F	.
.	.	.	16%3F'J	.	.	16%3fJ	.	.	.	.	.
.	.	.	.	8r	.	.	.	.	.	8F	.
4.FF	4.EE#X 4.AA] 4.E#X	.	4.F'	8r	.	4.f	.	4ff]	.	8FL	.
.	.	.	.	8r	.	.	.	.	.	8F	.
.	.	.	.	8A	.	.	.	8ff)	.	8FJ	.
=167	=167	=167	=167	=167	=167	=167	=167	=167	=167	=167	=167
4.BB-X	4.FF [4.BB 4.F	.	16%3GL	4d	.	16%3gL	.	[4.ff	.	8F	.
.	.	.	.	.	.	.	.	.	.	[4F	.
.	.	.	16%3GJ	.	.	16%3gJ	.	.	.	.	.
.	.	.	.	8r	.	.	.	.	.	.	.
4.G	4.EE#X) 4.BB] 4.E#X	.	[16%3GL	8r	.	16%3gL	.	4ff]	.	4F]	.
.	.	.	.	8r	.	.	.	.	.	.	.
.	.	.	16%3GJ]	.	.	16%3gJ	.	.	.	.	.
.	.	.	.	8B-X	.	.	.	8gg	.	8F	.
=	=	=	=	=	=	=	=	=	=	=	=
*-	*-	*-	*-	*-	*-	*-	*-	*-	*-	*-	*-
!!!system-decoration: [(s1,s2,s3,s4,s5,s6)]{(s7,s8)}
!!!CDT: 1892/03/10-1955/11/27
!!!CBL: Le Havre, France
!!!CDL: Paris, France
!!!CNT: Swiss, French
!!!AGN: Stage; Theatrical
!!!MCN: Sacher, Paul
!!!MDT: 1940/03/02
!!!MGN: Basel Chamber Choir; Basel Chamber Orchestra
!!!MLC: Basel, Switzerland
!!!MPD: 1940
!!!MPN: Falk, Gina; Hervé, Jean; Müller, Eduoard; Singher, Martial; Vivante, Ginevra
!!!ODT: 1938
!!!PDT: 1939
!!!excerpt-start-measure: 160
!!!excerpt-end-measure: 168
!!!excerpt-start-time: 1:06
!!!excerpt-end-time: 1:17
!!!EEV: 2020/01/22
!!!ONB: Converted from MusicXML on 2020/01/22
